X: 2368
M: C
L: 1/8
K: D
(uF>G) |\
c>eg>f e>dc>d | (3efe (3dcB A2 F>G |\
c>eg>f e>dc>e | d2f2d2 :|
|: (e>f) |\
g>fg>e c>AB>c | d>cd>e f2e>f |\
g>fg>e c>AB>c | (3efe (3dcB A2 (FG) |\
c>eg>f e>dc>e | d2f2d2 :|


